packages/netlify-cms-ui-default/src/Icon/images/code.svg

<svg height="20" viewBox="0 0 22 20" width="22" xmlns="http://www.w3.org/2000/svg"><path d="m75 20.6-4.3513514-4.6 4.3513514-4.6-1.3243243-1.4-5.6756757 6 5.6756757 6zm3 0 4.3513514-4.6-4.3513514-4.6 1.3243243-1.4 5.6756757 6-5.6756757 6z" fill="#7a8291" transform="translate(-66 -6)"/></svg>

<svg xmlns="http://www.w3.org/2000/svg" width="22" height="20" viewBox="0 0 22 20"><path fill="#7A8291" d="M75,20.6 L70.6486486,16 L75,11.4 L73.6756757,10 L68,16 L73.6756757,22 L75,20.6 Z M78,20.6 L82.3513514,16 L78,11.4 L79.3243243,10 L85,16 L79.3243243,22 L78,20.6 L78,20.6 Z" transform="translate(-66 -6)"/></svg>
